X:26
T:Extrapolation
R:reel
D:"Chasing the bear" by Jon Hicks
Z:Transcribed by Lionel Gueganton
L:1/8
M:4/4
K:F
|: F/E/D AD BG AG    | F/E/D AG CE AF | F/E/D AD BG cA | F/E/D ED A,D DD  |
   D/E/D dd cA [BG]A | F/E/D AG CE AG | FA df ec dc    | AG FA GE D2      |
   d2 fd BA Gd       | d/d/d fe fg fe | d/d/d fd AF DD | D/E/D ED CE A2   |
   d2 fd BA Gd       | d/d/d fe fg fe | d/d/d fd AF DD |1 D/E/D ED CE AF :|2
   D/E/D ED CE A2    | z4 z[B3F3B,3]  | [c3G3C3][d4A4D4]z

